X:1
T:Nu Rinder Solen Op, 65.65.65.665
T:Hartnack Otto Konrad Zink, 1801
T:Nu Rinder Solen Op, 65.65.65.665
T:Public Domain
C:Hartnack Otto Konrad Zink, 1801
Z:Public Domain
%%score ( 1 2 ) ( 3 4 )
L:1/8
M:4/4
K:D
V:1 treble 
V:2 treble 
V:3 bass 
V:4 bass 
V:1
 z2 [A,D]2 [A,A]2 [DG]2 | [DF]2 (DC) [DF]4 | z2 [EA]2 [Fd]2 [Ec]2 | (F2 E2) [CA]4 | %4
 z2 [A,D]2 [A,A]2 [DG]2 | [DF]2 (DC) [DF]4 | z2 [EA]2 d2 [Ec]2 | (F2 E2) [CA]4 | z6 [DA]2 | %9
 [DF]2 [DA]2 [DB]2 [Gc]2 | [Fd]2 [Ec]2 [EB]2 [Ec]2 | [EB]4 [CA]4 | z2 [DA]2 [DB]2 [GB]2 | %13
 [GA]2 [FA]2 [EG]4 | z2 [EB]2 [E=c]2 [DB]2 | [EA]2 [DA]2 [DG]4 | z2 [DF]2 [EA]2 [DF]2 | %17
 (D2 C2) D4 |] %18
V:2
 x8 | x2 E2 x4 | x8 | B4 x4 | x8 | x2 E2 x4 | x8 | B4 x4 | x8 | x8 | x8 | x8 | x8 | x8 | x8 | x8 | %16
 x8 | E4 D4 |] %18
V:3
 z2 [D,F,]2 [C,E,]2 [B,,G,]2 | [A,,A,]2 [A,,A,]2 [D,A,]4 | z2 [C,A,]2 [B,,A,]2 [C,A,]2 | %3
 [D,A,]2 [E,^G,]2 [A,,E,]4 | z2 [D,F,]2 [C,E,]2 [B,,G,]2 | [A,,A,]2 [A,,A,]2 [D,A,]4 | %6
 z2 [C,A,]2 [B,,A,]2 [C,A,]2 | ([D,A,]2 [E,^G,]2) [A,,E,]4 | z6 [D,F,]2 | %9
 [D,A,]2 [F,A,]2 G,2 [E,A,]2 | [D,A,]2 [A,,A,]2 [E,^G,]2 [C,A,]2 | (A,2 ^G,2) [A,,A,]4 | %12
 z2 [D,F,]2 G,2 [G,D]2 | [D,D]2 [^D,=C]2 [E,B,]4 | z2 [E,G,]2 [=C,G,]2 [G,,G,]2 | %15
 [=C,G,]2 [D,F,]2 [G,,B,]4 | z2 [D,A,]2 [C,A,]2 [D,A,]2 | ([G,,B,]2 A,G,) [D,F,]4 |] %18
V:4
 x8 | x8 | x8 | x8 | x8 | x8 | x8 | x8 | x8 | x4 G,2 x2 | x8 | E,4 x4 | x4 G,2 x2 | x8 | x8 | x8 | %16
 x8 | x2 A,,2 x4 |] %18

